Obsidian-SemiLight/actions/24s/text-flow-into-frame.svg

<svg viewBox="0 0 24 24" xmlns="http://www.w3.org/2000/svg"><path d="m4 4v16h8v-1h-7v-14h14v8h1v-9zm2 2v1h12v-1zm0 2v1h9v-1zm0 3v1h12v-1zm0 2v1h4v-1zm0 3v1h9v-1zm7 2v1h3v-1z" fill="#4d4d4d"/><path d="m12 13v1h4 .5c1.385 0 2.5 1.115 2.5 2.5 0 .8187-.39551 1.535134-1 1.990234v-1.490234h-1v1.949219.050781.951172.048828h1 2v-1h-1.076172c.65797-.6319 1.076172-1.5097 1.076172-2.5 0-1.939-1.561-3.5-3.5-3.5z" fill="#3daee9"/></svg>

<svg xmlns="http://www.w3.org/2000/svg" viewBox="0 0 24 24">
  <defs id="defs3051">
    <style type="text/css" id="current-color-scheme">
      .ColorScheme-Text {
        color:#4d4d4d;
      }
      .ColorScheme-Highlight {
        color:#3daee9;
      }
      </style>
  </defs>
 <path 
     style="fill:currentColor;fill-opacity:1;stroke:none" 
     d="M 4 4 L 4 20 L 12 20 L 12 19 L 5 19 L 5 5 L 19 5 L 19 13 L 20 13 L 20 4 L 4 4 z M 6 6 L 6 7 L 18 7 L 18 6 L 6 6 z M 6 8 L 6 9 L 15 9 L 15 8 L 6 8 z M 6 11 L 6 12 L 18 12 L 18 11 L 6 11 z M 6 13 L 6 14 L 10 14 L 10 13 L 6 13 z M 6 16 L 6 17 L 15 17 L 15 16 L 6 16 z M 13 18 L 13 19 L 16 19 L 16 18 L 13 18 z "
     class="ColorScheme-Text"
     />
 <path 
     style="fill:currentColor;fill-opacity:1;stroke:none" 
     d="M 12 13 L 12 14 L 16 14 L 16.5 14 C 17.885 14 19 15.115 19 16.5 C 19 17.3187 18.60449 18.035134 18 18.490234 L 18 17 L 17 17 L 17 18.949219 L 17 19 L 17 19.951172 L 17 20 L 18 20 L 20 20 L 20 19 L 18.923828 19 C 19.581798 18.3681 20 17.4903 20 16.5 C 20 14.561 18.439 13 16.5 13 L 12 13 z "
     class="ColorScheme-Highlight"
     />
</svg>
